svg/mairie.svg

<?xml version="1.0" encoding="UTF-8" standalone="no"?>
<svg xmlns:rdf="http://www.w3.org/1999/02/22-rdf-syntax-ns#" xmlns="http://www.w3.org/2000/svg" height="100%" width="100%" version="1.1" xmlns:cc="http://creativecommons.org/ns#" xmlns:dc="http://purl.org/dc/elements/1.1/" viewBox="0 0 16 16">
 <path fill="#838383" d="m8 1c-0.25 0.0032-0.5 0.1644-0.5 0.5v3.875l-5.5 2.625h12l-5.5-2.625v-3.875c0-0.3484-0.25-0.5032-0.5-0.5zm1 0v3h4l-2-1.5 2-1.5zm-7 8v1h1v4h-1v1h12v-1h-1v-4h1v-1zm6 1.5c1 0 2 0.5 2 1.5v2h-4v-2c0-1 1-1.5 2-1.5z"/>
</svg>

<?xml version="1.0" encoding="UTF-8" standalone="no"?>
<!-- Created with Inkscape (http://www.inkscape.org/) -->

<svg
   xmlns="http://www.w3.org/2000/svg"
   version="1.1"
   width="100%"
   height="100%"
   viewBox="0 0 16 16">
  <path
     d="M 8,1 C 7.75,1.0032 7.5,1.1644239 7.5,1.5 L 7.5,5.375 2,8 14,8 8.5,5.375 8.5,1.5 C 8.5,1.1516409 8.25,0.99680426 8,1 z M 9,1 9,4 13,4 11,2.5 13,1 z m -7,8 0,1 1,0 0,4 -1,0 0,1 12,0 0,-1 -1,0 0,-4 1,0 0,-1 z m 6,1.5 c 1,0 2,0.5 2,1.5 l 0,2 -4,0 0,-2 c 0,-1 1,-1.5 2,-1.5 z" />
</svg>
